<?xml version="1.0" encoding="UTF-8"?>
<map version="1.10" tiledversion="1.11.0" orientation="orthogonal" renderorder="right-down" width="30" height="20" tilewidth="128" tileheight="128" infinite="0" nextlayerid="3" nextobjectid="1">
 <editorsettings>
  <export target="Overworld1.json" format="json"/>
 </editorsettings>
 <tileset firstgid="1" source="OverworldTileset.tsx"/>
 <layer id="1" name="first_layer" width="30" height="20">
  <data encoding="csv">
1,1,1,1,1,1,1,1,1,1,1,1,1,1,1,1,1,1,1,1,1,1,1,1,1,1,1,1,1,1,
1,1,1,1,1,1,1,1,1,1,1,1,1,1,1,1,1,1,1,1,1,3,3,3,1,1,1,1,3,1,
1,1,1,1,3,3,3,2,4,4,1,1,1,1,1,1,1,1,1,3,3,3,3,3,3,1,1,1,1,1,
1,1,1,3,3,3,2,2,2,4,4,4,1,1,1,1,1,1,3,3,3,3,3,3,3,1,1,1,1,1,
1,1,1,3,3,2,2,2,2,2,4,4,4,1,1,1,1,1,4,4,3,3,3,3,4,1,1,1,1,1,
1,1,3,3,3,2,2,2,2,2,2,4,4,1,1,1,1,1,4,4,4,4,4,4,4,1,1,1,1,1,
1,1,3,3,2,2,2,2,2,2,2,4,4,1,1,1,1,1,1,1,4,4,4,1,1,1,1,3,3,1,
1,1,3,3,2,2,2,2,2,2,4,4,4,1,1,1,1,1,1,1,1,1,1,1,1,1,1,3,3,1,
1,1,3,2,2,2,2,2,2,2,4,4,4,1,1,1,1,1,1,1,1,1,1,1,1,1,1,3,1,1,
1,1,2,2,2,2,2,2,2,4,4,4,1,1,1,1,1,1,1,1,1,1,1,1,1,1,1,1,1,1,
1,1,1,2,2,2,2,2,4,4,4,1,1,1,1,1,1,1,1,1,1,1,1,1,1,1,1,1,1,1,
1,1,1,1,1,2,2,4,4,1,1,1,1,1,1,1,1,1,1,1,1,1,1,1,1,1,1,1,1,1,
1,1,1,1,2,2,2,1,1,1,1,1,1,1,1,1,1,1,1,1,1,1,1,1,1,1,1,1,3,3,
1,1,1,4,2,2,2,1,1,1,1,1,1,1,3,1,1,1,1,1,1,1,1,1,1,1,1,3,3,3,
1,1,4,4,2,2,2,2,1,1,1,1,1,3,3,3,3,1,1,1,1,1,1,1,1,5,5,3,3,3,
1,1,4,4,4,2,2,2,1,1,1,1,1,3,2,2,3,1,1,1,1,1,1,1,1,5,5,3,3,3,
1,1,4,4,4,4,2,2,1,1,1,1,1,3,2,3,3,1,1,1,1,1,1,1,1,5,5,3,3,3,
1,1,4,4,4,4,4,2,1,1,1,1,1,1,3,3,1,1,1,1,3,3,1,1,1,5,5,3,3,3,
1,1,1,4,4,4,1,1,1,1,1,1,1,1,1,1,1,1,1,3,3,3,1,1,1,5,5,3,3,3,
1,1,1,1,1,1,1,1,1,1,1,1,1,1,1,1,1,1,1,1,1,1,1,1,1,1,1,3,3,3
</data>
 </layer>
 <layer id="2" name="second_layer" width="30" height="20">
  <data encoding="csv">
0,0,0,0,0,0,0,0,0,0,0,0,0,0,0,0,0,0,0,0,0,0,0,0,0,0,0,0,0,0,
0,0,0,0,0,0,0,0,0,0,0,0,0,0,0,0,0,0,0,0,0,0,0,0,0,0,0,0,0,0,
0,0,0,0,0,0,0,0,0,0,0,0,0,0,0,0,0,0,0,0,8,0,7,0,0,0,0,0,0,0,
0,0,0,0,0,7,0,0,0,6,0,0,0,0,0,0,0,0,0,6,0,7,8,6,0,0,0,0,0,0,
0,0,0,0,6,0,8,0,0,0,0,0,0,0,0,0,0,0,0,7,0,0,0,0,0,0,0,0,0,0,
0,0,0,0,8,7,0,0,0,0,0,0,0,0,0,0,0,0,0,0,0,0,0,0,0,0,0,0,0,0,
0,0,0,6,0,0,0,8,7,0,0,0,0,0,0,0,0,0,0,0,6,0,0,0,0,0,0,0,0,0,
0,0,0,0,0,6,7,0,0,0,0,0,0,0,0,0,0,0,0,0,0,0,0,0,0,0,0,6,0,0,
0,0,0,6,0,0,0,0,0,0,0,6,0,0,0,0,0,0,0,0,0,0,0,0,0,0,0,0,0,0,
0,0,0,0,0,0,0,0,0,0,0,0,0,0,0,0,0,0,0,0,0,0,0,0,0,0,0,0,0,0,
0,0,0,0,0,0,0,0,0,0,0,0,0,0,0,0,0,0,0,0,0,0,0,0,0,0,0,0,0,0,
0,0,0,0,0,0,0,0,0,0,0,0,0,0,0,0,0,0,0,0,0,0,0,0,0,0,0,0,0,0,
0,0,0,0,0,0,0,0,0,0,0,0,0,0,0,0,0,0,0,0,0,0,0,0,0,0,0,0,0,0,
0,0,0,0,0,0,0,0,0,0,0,0,0,0,0,0,0,0,0,0,0,0,0,0,0,0,0,0,0,0,
0,0,0,8,7,0,0,0,0,0,0,0,0,0,6,0,0,0,0,0,0,0,0,0,0,0,0,0,0,0,
0,0,0,0,8,6,0,0,0,0,0,0,0,0,0,6,0,0,0,0,0,0,0,0,0,0,0,0,0,0,
0,0,0,7,0,0,0,0,0,0,0,0,0,0,0,0,0,0,0,0,0,0,0,0,0,0,0,0,0,0,
0,0,0,0,0,0,0,0,0,0,0,0,0,0,6,0,0,0,0,0,0,0,0,0,0,0,0,0,0,0,
0,0,0,0,0,0,0,0,0,0,0,0,0,0,0,0,0,0,0,0,6,0,0,0,0,0,0,0,0,0,
0,0,0,0,0,0,0,0,0,0,0,0,0,0,0,0,0,0,0,0,0,0,0,0,0,0,0,0,0,0
</data>
 </layer>
</map>
